X:13
T:"The Blue Bells of Scotland" Stick Dance
T:Adderbury W. Walton
S: Oct/Nov 1916 Janet Blunt JHB No. 12. p. 715
Z: Taz Tarry, 5/3/2014
N: I imagine X, \, and  / symbols under the notes indicate clapping.
M:C
L:1/4
K:C
"Once to yourself (or going round to places)" G2 | c2 B A|G2 A (B/2c/2)|E E F D|"_X" C2 G2| c2 B A|G2 A (B/2c/2)|E E F D|!X!C2 ||
P:No I
"Backwards & forwards twice" G2 | c2 B A|G2 A (B/2c/2)|E E F D|"_X" C2 G2| c2 B A|G2 A (B/2c/2)|E E F D|"_X" C2 ||
P:No II
"Clapping figures" ||:"_X"G2|"_\" E "_\"C "_/"E "_/"G|"_\"c "_\"c "_/"A "_/"c|"_\"B "_\"G "_/"A "_/"^F|"_X"G2|| "_X" G2|"_Ë "_\"C "_/"E "_/"G|"_\"c "_\"c "_/"A "_/"c|"_\"B "_\"G "_/"A "_/"^F|"_X" G2 ||
"^Back & forward twice" AB | c2 B A|G2 A (B/2c/2)|E E F D|"_X" C2 AB| c2 B A|G2 A (B/2c/2)|E E F D|"_X" C2 ||
W:The whole repeats 3 times (of No. II)

